icon/ir/apple-swift.svg

<svg stroke-width="1.5" viewBox="0 0 24 24" fill="none" xmlns="http://www.w3.org/2000/svg" height="1em" width="1em">
  <path d="M20.457 14.5892C20.9032 13.1527 21.9081 7.84019 14.5261 3.10086C14.2661 2.9345 13.9248 2.97821 13.7186 3.20043C13.5111 3.42264 13.5024 3.75778 13.6974 3.99092C13.7274 4.02614 16.4472 7.33991 15.4798 11.1248C13.8074 9.97369 7.1565 4.70249 7.1565 4.70249L11 11L3.8617 6.40006C3.8617 6.40006 8.90765 12.5953 11.9962 14.9255C10.5013 15.4622 7.25274 16.0305 2.963 13.364C2.72052 13.2122 2.40179 13.2413 2.1918 13.438C1.98431 13.6311 1.93931 13.9395 2.08555 14.1812C2.2293 14.4192 5.66784 20 12.9387 20C14.9335 20 16.0997 19.4317 17.0372 18.9764C17.6134 18.6971 18.0683 18.4749 18.5646 18.4749C19.8007 18.4749 20.6119 19.7025 20.6194 19.7134C20.7344 19.8919 20.9357 20 21.1507 20C21.1669 20 21.1844 19.9988 21.2019 19.9976C21.4356 19.9794 21.6381 19.8373 21.7281 19.6272C22.6206 17.5544 21.0832 15.359 20.457 14.5892Z" stroke="currentColor" stroke-linecap="round" stroke-linejoin="round"/>
</svg>

<svg width="24" height="24" stroke-width="1.5" fill="none" xmlns="http://www.w3.org/2000/svg"><path d="M20.457 14.59c.446-1.437 1.451-6.75-5.93-11.49a.636.636 0 0 0-.808.1.593.593 0 0 0-.022.79c.03.036 2.75 3.35 1.783 7.135-1.673-1.151-8.324-6.423-8.324-6.423L11 11 3.862 6.4s5.046 6.195 8.134 8.525c-1.495.537-4.743 1.105-9.033-1.561a.637.637 0 0 0-.771.074.593.593 0 0 0-.106.743C2.229 14.42 5.668 20 12.939 20c1.995 0 3.16-.568 4.098-1.024.576-.279 1.031-.501 1.528-.501 1.236 0 2.047 1.227 2.054 1.238a.632.632 0 0 0 .583.285.62.62 0 0 0 .526-.37c.893-2.074-.645-4.269-1.271-5.039Z" stroke="currentColor" stroke-linecap="round" stroke-linejoin="round"/></svg>
